X:1
T:大提琴练习曲_Book1_P16_No.23
T:大提琴练习曲_Book1_P16_No.23
L:1/8
Q:1/4=80
M:4/4
K:G
V:1 bass nm="大提琴" snm="Vc."
V:1
 C,,2 C,,2 C,,2 C,,2 | (3(G,,D,B,) (3(B,D,G,,) (3(G,,D,B,) (3(B,D,G,,) | %2
 (3G,,D,B, (3B,D,G,, (3G,,D,B, (3B,D,G,, | (3G,,D,C (3CD,G,, (3G,,D,C (3CD,G,, | %4
 (3G,,D,B, (3B,D,G,, (3G,,D,D (3DD,G,, | (3G,,D,B, (3B,D,G,, (3G,,D,B, (3B,D,G,, | %6
 (3G,,D,B, (3B,D,G,, (3G,,D,B, (3B,D,G,, | (3A,,F,A, (3A,F,A,, (3A,,G,A, (3A,G,A,, | %8
 (3(D,,F,,A,, (3D,F,A,) (3(D^CD (3A,F,D,) | (3(=C,D,F, (3A,F,D,) (3(C,D,F, (3A,F,D,) | %10
 (3(B,,D,G, (3B,G,D,) (3(B,,D,G, (3B,G,D,) | (3(C,D,F, (3A,F,D,) (3(C,D,F, (3A,F,D,) | %12
 (3(B,,D,G, (3B,G,D,) (3(A,,C,D, (3F,D,C,) | (3G,,D,B, (3B,D,G,, (3G,,D,B, (3B,D,G,, | %14
 (3G,,D,B, (3B,D,G,, (3C,E,A, (3A,E,C, | (3(D,,G,,B,, (3D,G,B,) (3(CA,F, (3D,C,A,,) | %16
 (3(G,,B,,D, (3G,D,B,,) (3(G,,C,_E, (3G,E,C,) | (3(G,,B,,D, (3G,D,B,,) (3(G,,C,_E, (3G,E,C,) | %18
 (3(G,,D,B,) (3(B,D,G,,) (3(G,,D,B,) (3(B,D,G,,) | G,,2 z2 z4 |] %20

